X:120
T:Krogvisa.
S:Efter snickaren Johansson i Rone.
M:C
L:1/8
K:A
A|A> A A B A2 E A|(cB) c d c2 A c|
w:U hoir däu, krö-gar-käl-liŋg, sla äi_ ti fö-tä-riŋg! Sla
e2 e2 e2 c A|c2 B> B B2 z e|
w:äi nå allt, va däu ai-gar u har! Män
d> c d e d2 B> d|c> B c d c2 A> c|
w:hoir däu, gamb-lä ramb-lä, sta in-tä jär u skramb-lä, fö
c> B B c B G E G|B2 A> A A2 z|]
w:da skatt däu fa vi-tä, va ja jär för en kal!
